X: 841
T: Gine Gördüm Elif Kızın Yüzünü
C: Nida Tüfekçi
O: Turkey
F: http://compmusic.upf.edu/node/140
N: tahir--turku--sofyan--gine_gordum--yozgat
N: makam= tahir
N: form= turku
N: usul= sofyan = 4/4
M: 4/4
L: 1/16
K: C _2/4B ^3/4f  
Q: 1/4=96
%%MIDI tuningsystem comma53
a2fg a2aa a2aa a2aa  | g2fg a2aa g2fg e2d2  | 
w:  ARANAĞME  |   | 
dcde d2c2 d4 e4  | cBcd c2B2 c4 d4  | \
w:   |   | 
cBcd c2B2 B2A4c2  | 
w:   | 
BA3 A4 A8  | a3a abc'b a3a aaa2  | a2aa aaa2 ac'c'b c'bba  | 
w:   |   |  *  *  *  *  *  *  Gi ne  *  *  gör *  düm   | 
a8 a8  | g2ag a2a2 g2fg e2d2  | z2fg aga2 g2fg e2d2  | 
w:   |  E lif  *  *  de  kı zın   |  yü *  zü *  *  nü  *  *  de   | 
e2fe edd^c d8  | =fede dede d3d d2d2  | \
w:  yü zü *  nü  a *  *  man    |  SAZ  | 
=fede dede d3d d2d2  | 
w:   | 
a2fg a2a2 a2a2 a4  | a2fg a2a2 agfg e2d2  | \
w:  *  Du man  *  da  san dım   |  *  şal *  *  va rı *  nın   | 
d2de d2c2 d4 e4  | 
w:  to zu *  *  nu  vay  vay    | 
cBcd c2B2 c4 d4  | cBcB c2B2 B2A2 A2c2  | \
w:  E li *  *  *  fim  gel  gel   |  naz *  *  *  lı  da  yâ rim   | 
B2A4A2 A4 dcBc  | 
w:  sal lan  da  gel   SAZ  | 
a2fg a2a2 a2a2 a4  | a2fg a2a2 agfg e2d2  | \
w:  *  Du man  *  da  san dım   |  *  şal *  *  va rı *  nın   | 
d2de d2c2 d4 e4  | 
w:  to zu *  *  nu  vay  vay    | 
cBcd c2B2 c4 d4  | cBcB c2B2 B2A2 A2c2  | \
w:  E li *  *  *  fim  gel  gel   |  naz *  *  *  lı  da  yâ rim   | 
B2A4A2 A4 dcBc  | 
w:  sal lan  da  gel   SAZ  | 
a2fg a2aa a2aa a2aa  | g2fg a2aa g2fg e2d2  | 
w:  ARANAĞME  |   | 
dcde d2c2 d4 e4  | cBcd c2B2 c4 d4  | \
w:   |   | 
cBcd c2B2 B2A4c2  | 
w:   | 
BA3 A4 A8  | a3a abc'b a3a aaa2  | a2aa aaa2 ac'c'b c'bba  | 
w:   |   |  *  *  *  *  *  *  Gi ne  *  *  gör *  düm   | 
a8 a8  | g2ag a2a2 g2fg e2d2  | z2fg aga2 g2fg e2d2  | 
w:   |  E lif  *  *  de  kı zın   |  yü *  zü *  *  nü  *  *  de   | 
e2fe edd^c d8  | =fede dede d3d d2d2  | \
w:  yü zü *  nü  a *  *  man    |  SAZ  | 
=fede dede d3d d2d2  | 
w:   | 
a2fg a2a2 a2a2 a4  | a2fg a2a2 agfg e2d2  | \
w:  *  Du man  *  da  san dım   |  *  şal *  *  va rı *  nın   | 
d2de d2c2 d4 e4  | 
w:  to zu *  *  nu  vay  vay    | 
cBcd c2B2 c4 d4  | cBcB c2B2 B2A2 A2c2  | \
w:  E li *  *  *  fim  gel  gel   |  naz *  *  *  lı  da  yâ rim   | 
B2A4A2 A4 |
w:  sal lan  da  gel    | 


